mobile/24/svg/edit-24.svg

<svg width="24" height="24" viewBox="0 0 24 24" fill="none" xmlns="http://www.w3.org/2000/svg">
<path fill-rule="evenodd" clip-rule="evenodd" d="M5.27729 2.73229C6.25356 1.75601 7.8366 1.75515 8.81272 2.73229L21.7437 15.6633C21.9078 15.8274 22 16.0499 22 16.282V21.125C22 21.6083 21.6083 22 21.125 22H16.282C16.0499 22 15.8274 21.9078 15.6633 21.7437L2.73229 8.81272C1.75558 7.83602 1.75558 6.254 2.73229 5.27729L5.27729 2.73229ZM6.51472 3.96972C6.80829 3.67616 7.28289 3.67686 7.5748 3.96924L9.34307 5.7375L5.7375 9.34307L3.96972 7.57529C3.67643 7.282 3.67643 6.80801 3.96972 6.51472L6.51472 3.96972ZM6.97494 10.5805L16.6444 20.25H20.25V16.6444L10.5805 6.97494L6.97494 10.5805Z" fill="black"/>
</svg>

<svg width="24" height="24" fill="none" xmlns="http://www.w3.org/2000/svg"><path fill-rule="evenodd" clip-rule="evenodd" d="M5.277 2.732a2.5 2.5 0 0 1 3.536 0l12.93 12.931a.875.875 0 0 1 .257.619v4.843a.875.875 0 0 1-.875.875h-4.843a.875.875 0 0 1-.619-.256L2.733 8.813a2.5 2.5 0 0 1 0-3.536l2.544-2.545zM6.515 3.97a.75.75 0 0 1 1.06 0l1.768 1.767-3.606 3.606L3.97 7.575a.75.75 0 0 1 0-1.06L6.515 3.97zm.46 6.61 9.67 9.67h3.605v-3.606l-9.67-9.67-3.605 3.607z" fill="#000"/></svg>
